X:57
%%score 1 2
%%pagewidth 8.5in
T:The Carman's Whistle - Byrd arrangement
M:6/8
L:1/8
K:C
V:1 clef-treble
V:2 clef-bass octave=-1
V:1 
G|c2c B2G|A2A G3 & x3 [B,D]2x|c2c B2G|A>GA [B,DG]2 :||
V:2
z|[CEG]3 [G,DG]3|[D^F]3 [G,DG]3|E2^F G3 & [A,C]3 [G,D]3|[D^F]3 [G,G]2 :||
V:1
FA2 EG2|DF2 E2C|FA2 EG2|F>ED C2C|
V:2
A3 c2G & D2F C2E|A2B [Gc]3 & F2D C2E|A3 c2G & D2F C2E|A2B G3 & D2G [CE]3|
V:1
FA2 EG2|DF2 E2C|FA2 EG2|FED C2||
V:2
F2F G2c & [F,C]3 C2E|A2B [Gc]3 & [DF]3 C2E|F2F G2E & [F,C]3 C2E|A2B G2 & D2G [CE]2||

